Colorimetry/SK9822CCSSnosum.ccss
CCSS 
 
DESCRIPTOR "SK9822 BASED ON Galaxy S8 (i1 Pro 2)" 
ORIGINATOR "Manual" 
CREATED "Wed Apr 26 23:33:16 2017" 
REFERENCE "one" 
MANUFACTURER "Normand Electronic Co" 
DISPLAY "Web" 
TECHNOLOGY "RGBLED" 
DISPLAY_TYPE_REFRESH "NO" 
SPECTRAL_BANDS "104" 
SPECTRAL_START_NM "370" 
SPECTRAL_END_NM "730" 
SPECTRAL_NORM 1.000000 
 
NUMBER_OF_FIELDS 105 
BEGIN_DATA_FORMAT 
SAMPLE_ID SPEC_370 SPEC_373 SPEC_377 SPEC_380 SPEC_384 SPEC_387 SPEC_391 SPEC_394 SPEC_398 SPEC_401 SPEC_405 SPEC_408 SPEC_412 SPEC_415 SPEC_419 SPEC_422 SPEC_426 SPEC_429 SPEC_433 SPEC_436 SPEC_440 SPEC_443 SPEC_447 SPEC_450 SPEC_454 SPEC_457 SPEC_461 SPEC_464 SPEC_468 SPEC_471 SPEC_475 SPEC_478 SPEC_482 SPEC_485 SPEC_489 SPEC_492 SPEC_496 SPEC_499 SPEC_503 SPEC_506 SPEC_510 SPEC_513 SPEC_517 SPEC_520 SPEC_524 SPEC_527 SPEC_531 SPEC_534 SPEC_538 SPEC_541 SPEC_545 SPEC_548 SPEC_552 SPEC_555 SPEC_559 SPEC_562 SPEC_566 SPEC_569 SPEC_573 SPEC_576 SPEC_580 SPEC_583 SPEC_587 SPEC_590 SPEC_594 SPEC_597 SPEC_601 SPEC_604 SPEC_608 SPEC_611 SPEC_615 SPEC_618 SPEC_622 SPEC_625 SPEC_629 SPEC_632 SPEC_636 SPEC_639 SPEC_643 SPEC_646 SPEC_650 SPEC_653 SPEC_657 SPEC_660 SPEC_664 SPEC_667 SPEC_671 SPEC_674 SPEC_678 SPEC_681 SPEC_685 SPEC_688 SPEC_692 SPEC_695 SPEC_699 SPEC_702 SPEC_706 SPEC_709 SPEC_713 SPEC_716 SPEC_720 SPEC_723 SPEC_727 SPEC_730
 
END_DATA_FORMAT 
 
NUMBER_OF_SETS 3
BEGIN_DATA 
1 0.00000 0.00000 0.00000 0.00000 0.00000 0.00000 0.00000 0.00000 0.00000 0.00000 0.00000 0.00000 0.00000 0.00000 0.00000 0.00000 0.00000 0.00000 0.00000 0.00000 0.00000 0.00000 0.00000 0.00000 0.00000 0.00000 0.00000 0.00000 0.00000 0.00000 0.00000 0.00000 0.00000 0.00000 0.00000 0.00000 0.00000 0.00000 0.00000 0.00000 0.00000 0.00000 0.00000 0.00000 0.00000 0.00000 0.00000 0.00000 0.00000 0.00000 0.00000 0.00000 0.00000 0.00000 0.00000 0.00000 0.00000 0.00000 0.00000 0.00000 0.00000 0.00000 0.00000 0.00000 0.00000 0.00000 0.00020 0.01493 0.56856 10.97409 107.37636 532.59154 1339.13805 1706.87592 1102.86935 361.23656 59.97978 5.04851 0.21541 0.00466 0.00005 0.00000 0.00000 0.00000 0.00000 0.00000 0.00000 0.00000 0.00000 0.00000 0.00000 0.00000 0.00000 0.00000 0.00000 0.00000 0.00000 0.00000 0.00000 0.00000 0.00000 0.00000 0.00000 0.00000
2 0.00000 0.00000 0.00000 0.00000 0.00000 0.00000 0.00000 0.00000 0.00000 0.00000 0.00000 0.00000 0.00000 0.00000 0.00000 0.00000 0.00000 0.00000 0.00000 0.00000 0.00000 0.00000 0.00000 0.00000 0.00000 0.00000 0.00000 0.00000 0.00000 0.00000 0.00000 0.00000 0.00000 0.00008 0.00171 0.02645 0.30256 2.55932 16.00677 74.01967 253.07851 639.77618 1195.81922 1652.59969 1688.62991 1275.75112 712.62674 294.32214 89.87697 20.29264 3.38761 0.41813 0.03816 0.00257 0.00013 0.00000 0.00000 0.00000 0.00000 0.00000 0.00000 0.00000 0.00000 0.00000 0.00000 0.00000 0.00000 0.00000 0.00000 0.00000 0.00000 0.00000 0.00000 0.00000 0.00000 0.00000 0.00000 0.00000 0.00000 0.00000 0.00000 0.00000 0.00000 0.00000 0.00000 0.00000 0.00000 0.00000 0.00000 0.00000 0.00000 0.00000 0.00000 0.00000 0.00000 0.00000 0.00000 0.00000 0.00000 0.00000 0.00000 0.00000 0.00000 0.00000
3 0.00000 0.00000 0.00000 0.00000 0.00000 0.00000 0.00000 0.00000 0.00000 0.00000 0.00000 0.00000 0.00000 0.00000 0.00000 0.00000 0.00000 0.00009 0.00213 0.03591 0.44789 4.13002 28.15773 141.94117 529.03419 1457.88669 2970.49257 4475.04950 4984.61808 4105.16490 2499.73515 1125.43926 374.64056 92.20877 16.78009 2.25778 0.22461 0.01652 0.00090 0.00004 0.00000 0.00000 0.00000 0.00000 0.00000 0.00000 0.00000 0.00000 0.00000 0.00000 0.00000 0.00000 0.00000 0.00000 0.00000 0.00000 0.00000 0.00000 0.00000 0.00000 0.00000 0.00000 0.00000 0.00000 0.00000 0.00000 0.00000 0.00000 0.00000 0.00000 0.00000 0.00000 0.00000 0.00000 0.00000 0.00000 0.00000 0.00000 0.00000 0.00000 0.00000 0.00000 0.00000 0.00000 0.00000 0.00000 0.00000 0.00000 0.00000 0.00000 0.00000 0.00000 0.00000 0.00000 0.00000 0.00000 0.00000 0.00000 0.00000 0.00000 0.00000 0.00000 0.00000 0.00000

END_DATA 
